X: 23981
T: Locked Down, The
R: waltz
M: 3/4
K: Gmajor
D/E/F|:G2BG dB|D2 FA cA|G2 Bd ed|c2 A2 D/E/F|G2BG dB|D2 FA cA|de cd BA|1 G4 D/E/F:|2 G4 d/e/f||
|:g2d3 B|c2 A3f|e3 d ^ce|d4 d/e/f|g2d3 B|c2 A3 B|cA FD FA|1 G4 d/e/f:|2 G6||

